**kern	**kern	**dynam
*part1	*part1	*part1
*staff2	*staff1	*
*I"Piano	*	*
*clefG2	*clefG2	*
*k[f#c#]	*k[f#c#]	*
=1	=1	=1
(16e^LL 16g 16b	8r	.
16f#J 16a	.	.
8gJ) 8b	8r	.
*clefF4	*	*
8BB' 8B	8f#' 8a 8b 8dd#X	.
=	=	=
(16E^LL 16G 16B	8g' 8b 8ee	.
16F#J 16A	.	.
8GJ) 8B	8r	.
8EE' 8E	8e' 8g 8b	.
=	=	=
8FF#'^ 8F#	(16dLL 16f# 16b	.
.	16cc#J	.
8r	8ddJ)	.
8FF#' 8F#	8e' 8f# 8a#X 8cc#	p
=	=	=
8.BBL 8.F#	8.dL 8.f# 8.b	.
16BBK 16F#	16BK 16d 16f#	.
8BBJ 8F#	8BJ 8d 8f#	.
=	=	=
4EE 4E	4B 4e 4g	.
8EE 8E	8B 8e 8g	.
=	=	=
8.BBL 8.F#	8.BL 8.d 8.f#	.
16BBK 16F#	16BK 16d 16f#	.
8BBJ 8F#	8BJ 8d 8f#	.
=	=	=
4FF# 4F#	4A#X 4c# 4f#	.
8F#	8A# 8c# 8f#	.
=	=	=
8.BBL 8.F#	8.BL 8.d 8.f#	.
16BBK 16F#	16BK 16d 16f#	.
8BBJ 8F#	8BJ 8d 8f#	.
=	=	=
*-	*-	*-
!!!system-decoration: {(s1,s2)}
